img/icons/instruments/pedal.svg

<svg viewBox="0 0 16 16" xmlns="http://www.w3.org/2000/svg"><path d="m3.22 1.09c-0.218 0.428-0.218 0.988-0.218 2.11v2.3c0.418-0.314 0.937-0.5 1.5-0.5h7c0.563 0 1.08 0.186 1.5 0.5v-2.3c0-1.12 0-1.68-0.218-2.11-0.192-0.376-0.498-0.682-0.874-0.874-0.428-0.218-0.988-0.218-2.11-0.218h-3.6c-1.12 0-1.68 0-2.11 0.218-0.376 0.192-0.682 0.498-0.874 0.874zm2.78 0.908c0 0.552-0.448 1-1 1s-1-0.448-1-1c0-0.552 0.448-1 1-1s1 0.448 1 1zm2 2c0.552 0 1-0.448 1-1 0-0.552-0.448-1-1-1s-1 0.448-1 1c0 0.552 0.448 1 1 1zm4-2c0 0.552-0.448 1-1 1s-1-0.448-1-1c0-0.552 0.448-1 1-1s1 0.448 1 1z" clip-rule="evenodd" fill="#000" fill-rule="evenodd"/><path d="m13 12.8v-5.3c0-0.828-0.672-1.5-1.5-1.5h-7c-0.828 0-1.5 0.672-1.5 1.5v5.3c0 1.12 0 1.68 0.218 2.11 0.192 0.376 0.498 0.682 0.874 0.874 0.428 0.218 0.988 0.218 2.11 0.218h3.6c1.12 0 1.68 0 2.11-0.218 0.376-0.192 0.682-0.498 0.874-0.874 0.218-0.428 0.218-0.988 0.218-2.11zm-8.89-4.25c-0.109 0.214-0.109 0.494-0.109 1.05v1.8c0 0.56 0 0.84 0.109 1.05 0.0959 0.188 0.249 0.341 0.437 0.437 0.214 0.109 0.494 0.109 1.05 0.109h4.8c0.56 0 0.84 0 1.05-0.109 0.188-0.0959 0.341-0.249 0.437-0.437 0.109-0.214 0.109-0.494 0.109-1.05v-1.8c0-0.56 0-0.84-0.109-1.05-0.0959-0.188-0.249-0.341-0.437-0.437-0.214-0.109-0.494-0.109-1.05-0.109h-4.8c-0.56 0-0.84 0-1.05 0.109-0.188 0.0959-0.341 0.249-0.437 0.437z" clip-rule="evenodd" fill="#000" fill-rule="evenodd"/></svg>

<svg xmlns="http://www.w3.org/2000/svg" viewBox="0 0 16 16" fill="none">
  <path fill="#000" fill-rule="evenodd"
    d="M3.218 1.092C3 1.52 3 2.08 3 3.2v2.3c.418-.314.937-.5 1.5-.5h7c.563 0 1.082.186 1.5.5V3.2c0-1.12 0-1.68-.218-2.108a2 2 0 0 0-.874-.874C11.48 0 10.92 0 9.8 0H6.2C5.08 0 4.52 0 4.092.218a2 2 0 0 0-.874.874ZM6 2a1 1 0 1 1-2 0 1 1 0 0 1 2 0Zm2 2a1 1 0 1 0 0-2 1 1 0 0 0 0 2Zm4-2a1 1 0 1 1-2 0 1 1 0 0 1 2 0ZM13 12.8V7.5A1.5 1.5 0 0 0 11.5 6h-7A1.5 1.5 0 0 0 3 7.5v5.3c0 1.12 0 1.68.218 2.108a2 2 0 0 0 .874.874C4.52 16 5.08 16 6.2 16h3.6c1.12 0 1.68 0 2.108-.218a2 2 0 0 0 .874-.874C13 14.48 13 13.92 13 12.8ZM4.109 8.546C4 8.76 4 9.04 4 9.6v1.8c0 .56 0 .84.109 1.054a1 1 0 0 0 .437.437c.214.11.494.11 1.054.11h4.8c.56 0 .84 0 1.054-.11a1 1 0 0 0 .437-.437C12 12.24 12 11.96 12 11.4V9.6c0-.56 0-.84-.109-1.054a1 1 0 0 0-.437-.437C11.24 8 10.96 8 10.4 8H5.6c-.56 0-.84 0-1.054.11a1 1 0 0 0-.437.436Z"
    clip-rule="evenodd" />
</svg>
